X: 32112
T: Pet Of The Pipers
R: jig
M: 6/8
K: Amajor
|:E|"A"{AB}[A3A3] cBA|ecA aec|{AB}[A3A3] cBA|"E7"GFE dcB|
"A"{AB}[A3A3] cBA|ecA aec|"D"fga "A"ecA|"E7"dBG "A"A2:|
|:f/g/|"A"aga "D"fga|"Bm"fba "E"gfe|"A"aga "D"fga|"E"bag "A"a2 e/f//g//|
"A"agf edc|"D"fed "F#m"cBA|"D"fga "A"ecA|"E7"dBG "A"A2:|

